X: 21
T:Young Collins, Longborough 2
M:2/2
L:1/8
A:Longborough
P:A(AB)4
K:G
P:A
|:GABc d2d2|c2e2 A2Bc|d2d2 e2dc|B3A  G4:|
P:B
|:E2D2 E2FG|A2B2 G4  |B2A2 B2cd|e2f2 d4 |
GABc d2d2|c2e2 A2Bc|d2d2 e2dc|B3A  G4:|
